dist/svgs/unicons/line/align.svg

<svg xmlns="http://www.w3.org/2000/svg" viewBox="0 0 24 24"><path d="M3 15h10a1 1 0 000-2H3a1 1 0 000 2zm0-4h10a1 1 0 000-2H3a1 1 0 000 2zm0-4h18a1 1 0 000-2H3a1 1 0 000 2zm18 10H3a1 1 0 000 2h18a1 1 0 000-2zm-1.36-7.43a1 1 0 10-1.28 1.53l1.08.9-1.08.9a1 1 0 00-.13 1.41 1 1 0 00.77.36 1 1 0 00.64-.24l2-1.66a1 1 0 000-1.54z"/></svg>

<svg xmlns="http://www.w3.org/2000/svg" viewBox="0 0 24 24"><path d="M3,15H13a1,1,0,0,0,0-2H3a1,1,0,0,0,0,2Zm0-4H13a1,1,0,0,0,0-2H3a1,1,0,0,0,0,2ZM3,7H21a1,1,0,0,0,0-2H3A1,1,0,0,0,3,7ZM21,17H3a1,1,0,0,0,0,2H21a1,1,0,0,0,0-2ZM19.64,9.57a1,1,0,1,0-1.28,1.53l1.08.9-1.08.9a1,1,0,0,0-.13,1.41,1,1,0,0,0,.77.36,1,1,0,0,0,.64-.24l2-1.66a1,1,0,0,0,0-1.54Z"/></svg>
